X:170
T:Jesus, Thy Boundless Love To Me
%%stretchlast false
M:3/4
L:1/4
K:C clef=C1
"^I"[C,E,G,C]3/4 "^ii"[C,F,G,D]/4 "^I"[C,G,E]2 | [C,G,CE]3/4 "^ii7³"[C,CDF]/4 "^I"[C,CEG] [C,G,CE] | "^I¹"[E,,G,C] "^ii7¹"[F,,A,CD] "^i"[G,,G,CD]/ "^I²"[G,,G,CE]/ | "^V7"[G,,G,B,F]/ "^v7"[G,,G,DF]/ [C,G,DF] "^I"[C,G,CE] | [C,E,G,C]3/4 [C,G,CE]/4 [C,CEG]2 | "^IV²"[C,CFA] "^I"[C,CEG]2 | [C,G,CE] "^vi"[A,,A,CE]2 | "^V/V"[D,^F,CD] "^V"[G,,G,B,D]2 | "^I"[C,E,G,C]3/4 "^ii"[C,F,G,D]/4 "^I"[C,G,E]2 | [C,G,CE]3/4 "^ii7³"[C,CDF]/4 "^I"[C,CEG] [C,G,CE] | "^I¹"[E,,G,C] "^ii7¹"[F,,A,CD] "^i"[G,,G,CD]/ "^I²"[G,,G,CE]/ | "^V7"[G,,G,B,F]/ "^v7"[G,,G,DF]/ [C,G,DF] "^I"[C,G,CE] | [C,E,G,C]3/4 [C,G,CE]/4 [C,CEG]2 | "^IV²"[C,CFA] "^I"[C,CEG]2 | [C,G,CE] "^vi"[A,,A,CE]2 | "^V/V"[D,^F,CD] "^V"[G,,G,B,D]2 | "^I"[C,G,CE] "^IV¹"[A,,F,CF]2 | "^I"[C,E,CG] "^IV"[F,CA]2 | "^I"[C,E,CG] "^V¹"[B,,D,G,G] "^I"[C,G,E]/ [C,D,G,E]/ | "^vi"[A,,E,C]/ "^♭v°¹"[A,,^F,C]/ "^I²"[G,,G,CE] "^V"[G,,G,B,D] | [G,B,G]/ "^V7³"[F,G,B,G]/ "^I¹"[E,G,Cc] [E,CG] | [E,G,CG]/ [E,G,Cc]/ "^IV"[F,A,Cc] [F,CA] | "^ii¹"[F,,A,DF] "^I²"[G,,G,CE]2 | "^V7"[G,,F,B,D] "^I"[C,E,C]2 |]
